app/assets/images/heroicons/solid/italic.svg

<svg width="24" height="24" viewBox="0 0 24 24" fill="none" xmlns="http://www.w3.org/2000/svg">
<path fill-rule="evenodd" clip-rule="evenodd" d="M10.497 3.74418C10.497 3.32994 10.8327 2.99414 11.247 2.99414H18.7468C19.161 2.99414 19.4968 3.32994 19.4968 3.74418C19.4968 4.15842 19.161 4.49422 18.7468 4.49422H15.4719L10.1148 19.4957H12.7469C13.1612 19.4957 13.497 19.8315 13.497 20.2458C13.497 20.66 13.1612 20.9958 12.7469 20.9958H5.24709C4.83286 20.9958 4.49707 20.66 4.49707 20.2458C4.49707 19.8315 4.83286 19.4957 5.24709 19.4957H8.52202L13.8791 4.49422H11.247C10.8327 4.49422 10.497 4.15842 10.497 3.74418Z" fill="black"/>
</svg>

<svg xmlns="http://www.w3.org/2000/svg" viewBox="0 0 24 24" fill="currentColor" aria-hidden="true" data-slot="icon">
  <path fill-rule="evenodd" d="M10.497 3.744a.75.75 0 0 1 .75-.75h7.5a.75.75 0 0 1 0 1.5h-3.275l-5.357 15.002h2.632a.75.75 0 1 1 0 1.5h-7.5a.75.75 0 1 1 0-1.5h3.275l5.357-15.002h-2.632a.75.75 0 0 1-.75-.75Z" clip-rule="evenodd"/>
</svg>
